svg/design/clockwise_alt_line.svg

<?xml version="1.0" encoding="UTF-8"?>
<svg width="24px" height="24px" viewBox="0 0 24 24" version="1.1" xmlns="http://www.w3.org/2000/svg" xmlns:xlink="http://www.w3.org/1999/xlink">
    <title>clockwise_alt_line</title>
    <g id="Icon" stroke="none" stroke-width="1" fill="none" fill-rule="evenodd">
        <g id="Design" transform="translate(-576.000000, -288.000000)" fill-rule="nonzero">
            <g id="clockwise_alt_line" transform="translate(576.000000, 288.000000)">
                <path d="M24,0 L24,24 L0,24 L0,0 L24,0 Z M12.5935,23.2578 L12.5819,23.2595 L12.5109,23.295 L12.4919,23.2987 L12.4767,23.295 L12.4057,23.2595 C12.3958,23.2564 12.387,23.259 12.3821,23.2649 L12.378,23.2758 L12.3609,23.7031 L12.3659,23.7235 L12.3769,23.7357 L12.4805,23.8097 L12.4953,23.8136 L12.5071,23.8097 L12.6107,23.7357 L12.6233,23.7197 L12.6267,23.7031 L12.6096,23.2758 C12.6076,23.2657 12.601,23.2593 12.5935,23.2578 Z M12.8584,23.1453 L12.8445,23.1473 L12.6598,23.2397 L12.6499,23.2499 L12.6472,23.2611 L12.6651,23.6906 L12.6699,23.7034 L12.6784,23.7105 L12.8793,23.8032 C12.8914,23.8069 12.9022,23.803 12.9078,23.7952 L12.9118,23.7812 L12.8777,23.1665 C12.8753,23.1546 12.8674,23.147 12.8584,23.1453 Z M12.143,23.1473 C12.1332,23.1424 12.1222,23.1453 12.1156,23.1526 L12.1099,23.1665 L12.0758,23.7812 C12.0751,23.7927 12.0828,23.8019 12.0926,23.8046 L12.1083,23.8032 L12.3092,23.7105 L12.3186,23.7024 L12.3225,23.6906 L12.3404,23.2611 L12.3372,23.2485 L12.3278,23.2397 L12.143,23.1473 Z" id="MingCute"></path>
                <path d="M14,7.99992 C15.1046,7.99992 16,8.89535 16,9.99992 L16,18.9999 C16,20.1045 15.1046,20.9999 14,20.9999 L4,20.9999 C2.89543,20.9999 2,20.1045 2,18.9999 L2,9.99992 C2,8.89535 2.89543,7.99992 4,7.99992 L14,7.99992 Z M14,9.99992 L4,9.99992 L4,18.9999 L14,18.9999 L14,9.99992 Z M13.0602,3.65804 C13.2489,3.13901 13.8227,2.87125 14.3417,3.05999 C16.7391,3.93175 18.4238,5.63818 19.5744,7.33149 L19.7933875,7.66338375 L19.7933875,7.66338375 L20,7.99509 L20,6.99978 C20,6.4475 20.4477,5.99978 21,5.99978 C21.51285,5.99978 21.9355092,6.38582429 21.9932725,6.88315975 L22,6.99978 L22,12.0559 C22,12.8437 21.3117,13.1116 21.0282,13.1517 C20.7432,13.192 20.0261,13.126 19.7953,12.391 C19.5044,11.4643 18.9219,9.92979 17.9201,8.45552 C16.9188,6.98179 15.5366,5.6226 13.6583,4.93958 C13.1392,4.75084 12.8715,4.17707 13.0602,3.65804 Z" id="形状" fill="#09244B"></path>
            </g>
        </g>
    </g>
</svg>

<svg xmlns="http://www.w3.org/2000/svg" width="24" height="24"><g fill="none" fill-rule="nonzero"><path d="M24 0v24H0V0h24ZM12.594 23.258l-.012.002-.071.035-.02.004-.014-.004-.071-.036c-.01-.003-.019 0-.024.006l-.004.01-.017.428.005.02.01.013.104.074.015.004.012-.004.104-.074.012-.016.004-.017-.017-.427c-.002-.01-.009-.017-.016-.018Zm.264-.113-.014.002-.184.093-.01.01-.003.011.018.43.005.012.008.008.201.092c.012.004.023 0 .029-.008l.004-.014-.034-.614c-.003-.012-.01-.02-.02-.022Zm-.715.002a.023.023 0 0 0-.027.006l-.006.014-.034.614c0 .012.007.02.017.024l.015-.002.201-.093.01-.008.003-.011.018-.43-.003-.012-.01-.01-.184-.092Z"/><path fill="#09244B" d="M14 8a2 2 0 0 1 2 2v9a2 2 0 0 1-2 2H4a2 2 0 0 1-2-2v-9a2 2 0 0 1 2-2h10Zm0 2H4v9h10v-9Zm-.94-6.342a1 1 0 0 1 1.282-.598c2.397.872 4.082 2.578 5.232 4.271l.22.332.206.332V7a1 1 0 0 1 1.993-.117L22 7v5.056c0 .788-.688 1.056-.972 1.096-.285.04-1.002-.026-1.233-.761-.29-.927-.873-2.461-1.875-3.935-1.001-1.474-2.383-2.833-4.262-3.516a1 1 0 0 1-.598-1.282Z"/></g></svg>
